!!!!SEGMENT: pl-kk--kk-i-322--006_casali-giovanni-battista--credidi-propter-vota-mea.krn
!!!cenid: 17xx:2128
!!!COM: Casali, Giovanni Battista
!!!COM-rismid: pe30000607
!!!CDT: 1715-1792/07/06
!!!CNT: Italian
!!!OPR: Credidi propter
!!!OTL: Vota mea
!!!OMV: 006
!!!PDT:
!!!AGN: Sacred
!!!SMS-siglum: PL-Kk
!!!SMS-shelfmark: Kk.I.322
!!!SMS-shelfwork: 001-006 M
!!!SMS-variant:
!!!SMS-altvar:
!!!NIFC-rismid: 1001146194
!!!URL-scan: http://repozytorium.nifc.pl/skany/pl-kk-nut--i-322
!!!ONB-nifc: UWAGA: części Credidi: 1. Credidi propter, 2. Calicem salutaris, 3. Vota mea, 4. O Domine, 5. Dirupisti vincula mea, 6. Vota mea, 7. Gloria Patri, 8. Et in saecula saeculorum
**kern	**fb	**kern	**text	**kern	**text	**kern	**text	**kern	**text	**kern
*part6	*part6	*part5	*part5	*part4	*part4	*part3	*part3	*part2	*part2	*part1
*staff6	*staff6	*staff5	*staff5	*staff4	*staff4	*staff3	*staff3	*staff2	*staff2	*staff1
*Iorgan	*	*Iempty	*	*Itenor	*	*Ialto	*	*Ivox	*	*Ivox
*I"Organo	*	*I"Baſso di Ripieno	*	*I"Tenore di Ripieno	*	*I"Alto di Ripieno	*	*I"Canto di Ripieno	*	*I"Canto Solo
*I'Org.	*	*I'B. rip.	*	*I'T. rip.	*	*I'A. rip.	*	*I'S. rip.	*	*I'S. Solo
*clefF4	*	*clefF4	*	*clefC4	*	*clefC3	*	*clefC1	*	*clefC1
*k[f#c#]	*	*k[f#c#]	*	*k[c#f#]	*	*k[f#c#]	*	*k[c#f#]	*	*k[f#c#]
*D:	*	*D:	*	*D:	*	*D:	*	*D:	*	*D:
*M3/4	*	*M3/4	*	*M3/4	*	*M3/4	*	*M3/4	*	*M3/4
=1	=1	=1	=1	=1	=1	=1	=1	=1	=1	=1
*2\right	*	*2\right	*	*2\right	*	*2\right	*	*2\right	*	*
!!LO:TX:t=P:problem:4\right:global
!!LO:TX:t=P:problem:8\right:global
!LO:TX:b:i:t=Tutti\nuota mea	!	!	!	!	!	!	!	!	!	!
!l	!	!LO:TX:a:i:t=Tutti	!	!LO:TX:a:i:t=Tutti	!	!LO:TX:a:i:t=Tutti	!	!LO:TX:a:i:t=Tutti	!	!LO:TX:a:t=Vota mea Tace
2D\	.	2d\	Vo-	2f#\	Vo-	2a\	Vo-	2dd\	Vo-	2.ryy
4AA/	.	4A\	-ta	4e\	-ta	4a\	-ta	4cc#\	-ta	.
=2	=2	=2	=2	=2	=2	=2	=2	=2	=2	=2
2BB/	5	2B\	me-	2d\	me-	4.f#\	me-	2dd\	me-	2.ryy
.	.	.	.	.	.	8g\	.	.	.	.
4F#\	6	4F#\	-a	4d\	-a	4a\	-a	4dd\	-a	.
=3	=3	=3	=3	=3	=3	=3	=3	=3	=3	=3
4G\	.	4G\	Do-	4B\	Do-	4b\	Do-	4dd\	Do-	2.ryy
4E\	.	4E\	-mi-	4e\	-mi-	4g\	-mi-	4dd\	-mi-	.
4A\	.	4A\	-no	4e\	-no	4a\	-no	4cc#\	-no	.
=4	=4	=4	=4	=4	=4	=4	=4	=4	=4	=4
[>2.D/	.	2D/	red-	(4.f#\	red-	(4.a\	red-	2dd\	red-	2.ryy
.	.	.	.	8e\)	.	8g\)	.	.	.	.
.	.	4D/	-dam	4d\	-dam	4f#\	-dam	4a\	-dam	.
!LO:LB:g=original	!	!LO:LB:g=original	!	!LO:LB:g=original	!	!LO:LB:g=original	!	!LO:LB:g=original	!	!
=5	=5	=5	=5	=5	=5	=5	=5	=5	=5	=5
2D/]	.	4r	.	2f#\	in	2a\	in	2dd\	in	2.ryy
.	.	4d\	in	.	.	.	.	.	.	.
4D/	.	4d\	con-	4f#\	con-	4a\	Con-	4dd\	Con-	.
=6	=6	=6	=6	=6	=6	=6	=6	=6	=6	=6
4C#/	6	(4c#\	-spe-	2e\	-spe-	2a\	-spe-	(4a\	-spe-	2.ryy
4AA/	.	4A\)	.	.	.	.	.	4cc#\)	.	.
4D\	.	4d\	-ctu	4f#\	-ctu	4a\	-ctu	4dd\	-ctu	.
=7	=7	=7	=7	=7	=7	=7	=7	=7	=7	=7
4C#/	6	(4c#\	om-	2e\	om-	2a\	om-	(4a\	om-	2.ryy
4AA/	.	4A\)	.	.	.	.	.	4cc#\)	.	.
4D\	.	4d\	-niſ	4f#\	-niſ	4a\	-niſ	4dd\	-niſ	.
=8	=8	=8	=8	=8	=8	=8	=8	=8	=8	=8
4C#/	6	4c#\	po-	4e\	po-	4a\	po-	4a\	po-	2.ryy
4AA/	.	4A\	-pu-	4c#\	-pu-	4e\	-pu-	4a\	-pu-	.
4C#/	.	4c#\	-li	4e\	-li	[4a\	-li	4a\	-li	.
=9	=9	=9	=9	=9	=9	=9	=9	=9	=9	=9
2.BB/	7	2.B\	e-	2.d\	e-	4a\]	.	2.dd\	e-	2.ryy
.	#6	.	.	.	.	2g#X\	e-	.	.	.
!LO:LB:g=original	!	!LO:LB:g=original	!	!	!	!	!	!	!	!
=10	=10	=10	=10	=10	=10	=10	=10	=10	=10	=10
[>2.AA/	5 3	2A\	-iuſ	2e\	-ius	2a\	-iuſ	2cc#\	-ius	2.ryy
.	.	4A\	in	4r	.	4r	.	4r	.	.
!	!	!	!	!LO:LB:g=original	!	!LO:LB:g=original	!	!LO:LB:g=original	!	!
=11	=11	=11	=11	=11	=11	=11	=11	=11	=11	=11
!	!	!	!	!	!	!LO:TX:b:t=1	!	!	!	!
2.AA/_>	.	[2.A\	a-	4r	.	2.r	.	4r	.	2.ryy
.	.	.	.	4r	.	.	.	4r	.	.
.	.	.	.	4e\	in	.	.	4cc#\	in	.
=12	=12	=12	=12	=12	=12	=12	=12	=12	=12	=12
2.AA/_>	7 5	2.A\_	.	4e\	a-	4r	.	4cc#\	at-	2.ryy
.	.	.	.	4e\	-tri-	4r	.	4cc#\	-ri-	.
.	.	.	.	4g\	-jſ	4a\	in	4ee\	-jſ	.
=13	=13	=13	=13	=13	=13	=13	=13	=13	=13	=13
2.AA/_>	6 4	4A\]	.	2f#\	Do-	4a\	a-	2dd\	Do-	2.ryy
.	x 3	4A\	-tri-	.	.	4a\	-tri-	.	.	.
.	.	4A\	-jſ	4e\	-muſ	4a\	-jſ	4cc#\	-mus	.
=14	=14	=14	=14	=14	=14	=14	=14	=14	=14	=14
2.AA/]	.	2A\	do-	2f#\	Do-	2a\	do-	2dd\	do-	2.ryy
.	.	4A\	-muſ	4g\	-muſ	4a\	-muſ	4ee\	-mus	.
=15	=15	=15	=15	=15	=15	=15	=15	=15	=15	=15
2.D\	.	2d\	Do-	2f#\	Do-	2a\	Do-	2dd\	Do-	2.ryy
.	.	4d\	-mi-	4f#\	-mi-	4a\	-mi-	4dd\	-mi-	.
!LO:LB:g=original	!	!LO:LB:g=original	!	!LO:LB:g=original	!	!	!	!	!	!
=16	=16	=16	=16	=16	=16	=16	=16	=16	=16	=16
2AA/	.	2A\	-ni	2e\	-ni	2a\	-ni	2cc#\	-ni	2.ryy
4A\	.	4A\	in	4e\	in	4a\	in	4cc#\	in	.
!	!	!	!	!	!	!LO:LB:g=original	!	!LO:LB:g=original	!	!
=17	=17	=17	=17	=17	=17	=17	=17	=17	=17	=17
2B\	5	4B\	me-	4d\	me-	4d\	me-	4dd\	me-	2.ryy
.	.	4B\	-di-	4d\	-di-	4d\	-di-	4dd\	-di-	.
4G#X\	5	4G#X\	-o	4e\	-o	4b\	-o	4dd\	-o	.
=18	=18	=18	=18	=18	=18	=18	=18	=18	=18	=18
2A\	.	4A\	tu-	4e\	tu-	4a\	tu-	4cc#\	tu-	2.ryy
.	.	4A\	-i	4e\	-i	4a\	-i	4cc#\	-i	.
4d\	.	4d\	Je-	4f#\	Je-	4a\	Je-	[4dd\	Je-	.
=19	=19	=19	=19	=19	=19	=19	=19	=19	=19	=19
2.A\	6 4	2A\	-ru-	2e\	-ru-	2a\	-ru-	4dd\]	.	2.ryy
.	x 3	.	.	.	.	.	.	4cc#\	-ru-	.
.	.	4A\	-sa-	4e\	-sa-	4a\	-sa-	4cc#\	-sa-	.
=20	=20	=20	=20	=20	=20	=20	=20	=20	=20	=20
2D/	.	2D/	-lem	2d\	-lem	2a\	-lem	2dd\	-lem	2.ryy
4d\	.	4r	.	4d\	in	4f#\	in	4r	.	.
!LO:LB:g=original	!	!LO:LB:g=original	!	!LO:LB:g=original	!	!	!	!	!	!
=21	=21	=21	=21	=21	=21	=21	=21	=21	=21	=21
4A\	.	4r	.	4c#\	me-	4e\	me-	4r	.	2.ryy
4A\	.	4r	.	4c#\	-di-	4e\	-di-	4r	.	.
4d\	.	4d\	in	4d\	-o	4f#\	-o	4a\	in	.
!	!	!	!	!	!	!LO:LB:g=original	!	!LO:LB:g=original	!	!
=22	=22	=22	=22	=22	=22	=22	=22	=22	=22	=22
8c#\L	6	8c#\L	me-	(4.e\	tu-	2e\	tu-	4a\	me-	2.ryy
8B\J	.	8B\J	.	.	.	.	.	.	.	.
4A\	.	4A\	-di-	.	.	.	.	4cc#\	-di-	.
.	.	.	.	8d\)	.	.	.	.	.	.
4G\	46	4G\	-o	4c#\	-i	4e\	-i	4ee\	-o	.
=23	=23	=23	=23	=23	=23	=23	=23	=23	=23	=23
2F#\	6	4F#\	tu-	(2d\	Je-	(2a\	Je-	4dd\	tu-	2.ryy
.	.	4F#\	-i	.	.	.	.	4dd\	-i	.
4G\	.	4G\	Je-	4g\)	.	4b\)	.	4dd\	Je-	.
=24	=24	=24	=24	=24	=24	=24	=24	=24	=24	=24
[>2.A\	6 4	2.A\	-ru-	2.f#\	-ru-	2.a\	-ru-	2.dd\	-ru-	2.ryy
!LO:LB:g=original	!	!	!	!	!	!	!	!	!	!
=25	=25	=25	=25	=25	=25	=25	=25	=25	=25	=25
!LO:TX:t=P:problem:zakończenie łuku na dole	!	!	!	!	!	!	!	!	!	!
2.A\]<	.	2.AA/	-sa-	2.e\	-sa-	2.a\	-sa-	2.cc#\	-sa-	2.ryy
=26	=26	=26	=26	=26	=26	=26	=26	=26	=26	=26
!LO:TX:b:i:t=Uolti ſubito	!	!	!	!	!	!	!	!	!	!
2D;\	.	2D;\	-lem	2d;\	-lem	2a;\	-lem	2dd;\	-lem	2.ryy
!	!	!	!	!	!	!LO:TX:b:i:t=Gloria Patri Tace	!	!	!	!
!	!	!LO:TX:t=P:problem:pojedyncza kreska taktowa	!	!LO:TX:t=P:problem:pojedyncza kreska taktowa	!	!	!	!	!	!
4ryy	.	4r	.	4r	.	4r	.	4r	.	.
!LO:PB:g=original	!	!LO:PB:g=original	!	!LO:PB:g=original	!	!LO:PB:g=original	!	!LO:PB:g=original	!	!
==	==	==	==	==	==	==	==	==	==	==
*-	*-	*-	*-	*-	*-	*-	*-	*-	*-	*-
!!!system-decoration: s1[(s2,s3,s4,s5)]s6
!!!AIN: 1 alto 1 empty 1 organ 1 tenor 2 vox
!!!ENC: Marta Chmielewska
!!!END: 2021-03-24
!!!RDF**kern: < = below
!!!RDF**kern: > = above
!!!ENC: Mateusz Solarz
!!!END: 2021-03-16
